src/pos-icons/surround-sound-7-1.svg

<svg height="24" viewBox="0 0 24 24" width="24" xmlns="http://www.w3.org/2000/svg"><path d="m12 17a1 1 0 0 1 -1-1 1 1 0 0 1 1-1 1 1 0 0 1 1 1 1 1 0 0 1 -1 1m6-10v8h1v2h-4v-2h1v-6h-1l1-2zm-7 0-3 10h-2l2.4-8h-3.4v-2z"/></svg>

<?xml version="1.0" encoding="UTF-8"?><!DOCTYPE svg PUBLIC "-//W3C//DTD SVG 1.1//EN" "http://www.w3.org/Graphics/SVG/1.1/DTD/svg11.dtd"><svg xmlns="http://www.w3.org/2000/svg" xmlns:xlink="http://www.w3.org/1999/xlink" version="1.1" id="mdi-surround-sound-7-1" width="24" height="24" viewBox="0 0 24 24"><path d="M12,17A1,1 0 0,1 11,16A1,1 0 0,1 12,15A1,1 0 0,1 13,16A1,1 0 0,1 12,17M18,7V15H19V17H15V15H16V9H15L16,7H18M11,7L8,17H6L8.4,9H5V7H11Z" /></svg>
